img/nav-faq-icon.svg

<svg width="20" height="20" viewBox="0 0 20 20" fill="none" xmlns="http://www.w3.org/2000/svg">
<path fill-rule="evenodd" clip-rule="evenodd" d="M0 10C0 15.5228 4.47715 20 10 20C15.5228 20 20 15.5228 20 10C20 4.47715 15.5228 0 10 0C4.47715 0 0 4.47715 0 10ZM2 10C2 5.58172 5.58172 2 10 2C14.4183 2 18 5.58172 18 10C18 14.4183 14.4183 18 10 18C5.58172 18 2 14.4183 2 10ZM10.5476 11.066C10.4916 11.43 10.1976 11.752 9.79159 11.752H9.67959C9.27359 11.752 8.97959 11.444 8.92359 11.066L8.78359 10.114C8.71359 9.652 8.97959 9.33 9.42759 9.274C10.6456 9.12 11.2056 8.742 11.2056 8.056V8.028C11.2056 7.398 10.7296 7.034 9.91759 7.034C9.31559 7.034 8.79759 7.216 8.29359 7.594C8.12559 7.72 7.90159 7.818 7.66359 7.818C7.13159 7.818 6.68359 7.37 6.68359 6.838C6.68359 6.572 6.79559 6.292 7.04759 6.082C7.78959 5.466 8.72759 5.074 9.95959 5.074C11.9756 5.074 13.3476 6.11 13.3476 7.972V8C13.3476 9.778 12.1156 10.506 10.5896 10.814L10.5476 11.066ZM8.46159 13.894V13.866C8.46159 13.194 8.97959 12.676 9.67959 12.676C10.3796 12.676 10.8976 13.194 10.8976 13.866V13.894C10.8976 14.566 10.3796 15.084 9.67959 15.084C8.97959 15.084 8.46159 14.566 8.46159 13.894Z" fill="#F58020"/>
</svg>

<svg width="20" height="20" fill="none" xmlns="http://www.w3.org/2000/svg"><path fill-rule="evenodd" clip-rule="evenodd" d="M0 10c0 5.523 4.477 10 10 10s10-4.477 10-10S15.523 0 10 0 0 4.477 0 10zm2 0a8 8 0 1 1 16 0 8 8 0 0 1-16 0zm8.548 1.066c-.056.364-.35.686-.756.686H9.68c-.406 0-.7-.308-.756-.686l-.14-.952c-.07-.462.196-.784.644-.84 1.218-.154 1.778-.532 1.778-1.218v-.028c0-.63-.476-.994-1.288-.994-.602 0-1.12.182-1.624.56a1.074 1.074 0 0 1-.63.224.992.992 0 0 1-.98-.98c0-.266.112-.546.364-.756.742-.616 1.68-1.008 2.912-1.008 2.016 0 3.388 1.036 3.388 2.898V8c0 1.778-1.232 2.506-2.758 2.814l-.042.252zm-2.086 2.828v-.028c0-.672.518-1.19 1.218-1.19s1.218.518 1.218 1.19v.028c0 .672-.518 1.19-1.218 1.19s-1.218-.518-1.218-1.19z" fill="#F58020"/></svg>
